X:1
T:Title
%%score { ( 1 3 ) | ( 2 4 ) }
L:1/8
M:4/4
K:Eb
V:1 treble nm="Grand Piano"
V:3 treble 
V:2 bass 
V:4 bass 
V:1
 z4 z2[Q:1/4=100] [EG]2 | [GB]3 [GB] G2 F2 | E3 G [GB]3 [FA] | GGFE F2 F2 |[M:3/4] [B,DF]6 | %5
[M:1/4] [DAB]2 |[M:4/4] [EGB]3 [EGB] [B,EG]2 [G,E]2 | [B,EG]3 [EGB] [EBe]3 [EAc] | %8
 [EGB][EGB][EGB][FA] [B,EG]2 [A,DF]2 |[M:3/4] [G,E]6 |[M:1/4] [B,GB]2 |[M:4/4] d6 z2 | e6 z2 | %13
 [DFA][EG]FG =A2 c2 |[M:7/8] [DB]-[DB]-[DB]- [DB]- [DB]2- [DB]/ z/ |[M:1/4] B2 | %16
[M:4/4] [GB]3 [FA] [EG]2 [GB]2 |[M:9/8] [Be]3 [Bd] c2- c c2 |[M:4/4] B3 e B2 G2 | %19
[M:7/8] [DF]- [DF]3 z z2 |] %20
V:2
 z4 z2 [E,B,]2 | [E,E]3 [E,E] [E,B,E]2 [E,A,B,]2 | [E,G,B,]3 [E,B,E] [E,E]3 [E,E] | %3
 [E,B,E][E,B,E][A,B,D][G,B,] [F,B,D]2 [F,=A,E]2 |[M:3/4] B,,6 |[M:1/4] B,,2 | %6
[M:4/4] E,3 E, E,2 E,2 | E,3 E, G,3 A, | B,B,B,B, B,,2 B,,2 |[M:3/4] E,6 |[M:1/4] E,2 | %11
[M:4/4] [B,,B,]2 [B,,B,]2 [B,,B,]2 [D,B,]2 | [E,B,]2 E,2 E,2 E,2 | %13
 B,,C,[D,B,][E,B,E] [F,E]2 [F,=A,E]2 |[M:7/8] B,,2 D, F, B,3 |[M:1/4] [G,E][F,C] | %16
[M:4/4] [E,E]3 [E,E] [E,B,]2 [E,E]2 |[M:9/8][K:treble] [G,E]3 [G,E] [A,EA]2- [A,EA] [=A,E_G]2 | %18
[M:4/4] [B,EG]3 [B,G][K:bass] [G,B,E]2 [E,B,E]2 |[M:7/8] B,2 z2 [E,G,]3 |] %20
V:3
 x8 | x8 | x8 | x8 |[M:3/4] x6 |[M:1/4] x2 |[M:4/4] x8 | x8 | x8 |[M:3/4] x6 |[M:1/4] x2 | %11
[M:4/4] A2 A2 A2 [AB]2 | G2 [B,G]2 [B,G]2 [EGB]2 | x8 |[M:7/8] B,- B,3 z z/ A,3/2 |[M:1/4] z F | %16
[M:4/4] x8 |[M:9/8] x9 |[M:4/4] x8 |[M:7/8] z2 A,2 E3 |] %20
V:4
 x8 | x8 | x8 | x8 |[M:3/4] x6 |[M:1/4] x2 |[M:4/4] x8 | x8 | x8 |[M:3/4] x6 |[M:1/4] x2 | %11
[M:4/4] x8 | x8 | x8 |[M:7/8] x7 |[M:1/4] x2 |[M:4/4] x8 |[M:9/8][K:treble] x9 | %18
[M:4/4] x4[K:bass] x4 |[M:7/8] B,,- B,,3 z z2 |] %20

